X:1
T:Anthem
T:Anthem
T:William Billings
C:William Billings
%%score [ 1 2 3 4 ]
L:1/8
Q:1/4=120
M:3/4
K:F
V:1 treble nm="Soprano" snm="S"
V:2 treble nm="Alto" snm="A"
V:3 treble-8 nm="Tenor" snm="T"
V:4 bass nm="Bass" snm="B"
V:1
 A2 | A4 c2 | (cA B2) c2 | c2 c2 z2 | z6 | z6 | z2 z2 A2 | (c2 B2) A2 | (d>c B2) c2 | c2 c2 z2 | %10
w: O|praise the|Lord _ _ of|Heav- en;|||O|praise _ the|Lord _ _ of|Heav- en,|
 z6 | c2 c2 z2 | c3 B AB | c2 c2 z2 | f3 e de | f2 f2 z2 | c4 c2 | c2 c2 z2 | (c2 d2) c2 | c2 c2 :| %20
w: |praise him,|praise him all ye|An- gels,|praise him all ye|An- gels,|praise Je-|ho- vah,|praise _ Je-|ho- vah.|
[M:2/2] z8 | z8 | z4 A2 A2 |[M:3/4] F4 z2 | A4 G2 | G4 z2 | A4 c2 | c6 |[M:2/2] z8 | z8 | z8 | z8 | %32
w: ||Praise the|Lord,|praise the|Lord,|praise the|Lord.|||||
 z8 | z8 | z2 A2 c2 cc | c2 c2 z2 c2 | c2 (fd) (ec) (cA) | (Bd) c2 c4 |[M:2/4] z4 | z4 | z4 | z4 | %42
w: ||and they were cre-|a- ted; ad-|mire, a- * dore, * ad- *|mire, * a- dore.|||||
 z4 |[M:2/2] c4 c2 d2 | c2 e6 | f2 c2 A2 c2 | c6 f2 | (f2 d2 e2 c2 | d2 B2 c4 | c6) c2 | c2 c2 z4 | %51
w: |Change your dire|Hiss- ings|in- to heav'n- ly|Songs, And|praise * * *||* your|Mak- er|
[M:2/4] z4 | (A/B/A/B/ c)c | (c/d/c/B/ A)B | (cc c)c | c2 cc | (dB c)c | (dB B)A | A3 c | %59
w: |fork- * * * * ed,|fork- * * * * ed,|fork- * * ed|Tongues, with your|fork- * * ed,|fork- * * ed|Tongues, and|
 (fc/B/ A)A | B>d c2 | c c/B/ A/B/c/d/ | c c2 c |[M:3/4] c4 A2 | (c2 B2) A2 | B2 c4 | c2 c2 z2 | %67
w: praise * * * your|Mak- * er|with your _ fork- * * *|* * ed|Tongues. O|praise * the|Lord of|Heav- en;|
[M:2/2] z8 | z8 | z8 | (fed)c d2 c2 | z8 | z8 | A2 A2 A2 A2 | A2 c2 B2 B2 | A2 B2 c4 | z8 | %77
w: |||Beast * * and Cat- tle,|||Kings and Princ- es,|Men and An- gels,|praise the Lord,||
 d2 d2 c2 c2 | B2 c2 c4 | z8 | d2 d2 c2 c2 | B2 c2 c4 | z8 | d2 dd (c>B A2) | B2 c2 c4 | %85
w: Male and Fe- male,|Bond and Free,||Land and Wa- ter,|praise the Lord;||old Men and Babes, * *|praise the Lord.|
 z2 FA AABB | BBcc ccAc | c2 cc fcdc | cAFA Bddc | fc (dB) c2 c2 | c3 c c2 c2 | c4 c4 | %92
w: Join Cre- a- tion, Pres- er-|va- tion, and Re- demp- tion join in|one; no Ex- emp- tion, nor Dis-|sen- tion, one In- ven- tion, and In-|ten- tion reigns * through the|Whole, to praise the|Lord, praise|
 fcdf/e/ d2 c2 | c6 z2 |: (A>BA)G (F/E/F/G/) A2 | c3 B A2 c2 | c3 c c2 c2 | (B>cB)A (G/F/G/A/) B2 | %98
w: _ _ _ _ _ _ the|Lord.|Hal- * * le- lu- * * * jah,|Hal- le- lu- jah,,|Hal- le- lu- jah,|Hal- * * le- lu- * * * jah,|
 (A>Bc)c =B2 c2 | AAcc AABB | ccce d2 c2 | c2 c2 fdec | fdec dBcA | dBcA c2 c2 | c2 c2 d2 c2 | %105
w: Hal- * * le- lu- jah,|Hal- le- lu- jah, hal- le- luj- jah,|Hal- le- lu- jah, praise _|_ _ _ _ _ _|||* * * the|
 c6 z2 |] %106
w: Lord.|
V:2
 F2 | F4 G2 | (A2 G2) G2 | A2 A2 z2 | F3 E DE | F4 z2 | z4 F2 | (A2 G2) F2 | F2 G4 | A2 A2 z2 | %10
w: O-|praise the|Lord _ of|Heav- en;|praise him in the|heights,|O|praise _ the|Lord of|Heav- en,|
 A3 G FG | A2 A2 z2 | (A>B A>G) F2 | A3 G FG | A2 A2 z2 | (A>B A>G F2) | A4 G2 | A2 A2 z2 | %18
w: praise him all ye|An- gels,|praise _ _ _ him,|praise him all ye|An- gels,|praise _ _ _ _|praise Je-|ho- vah,|
 (A2 B2) G2 | A2 A2 :|[M:2/2] z8 | z8 | z4 F2 C2 |[M:3/4] D4 z2 | F4 D2 | E4 z2 | F4 G2 | A6 | %28
w: praise _ Je-|ho- vah.|||Praise the|Lord,|praise the|Lord,|praise the|Lord.|
[M:2/2] F3 E (DE/F/G)F | (EC)DE F4 | z8 | z8 | z8 | z8 | z2 F2 A2 AG | A2 A2 z2 A2 | A2 F2 A2 A2 | %37
w: Let- them praise * * * the|Name * of the Lord,|||||and- they were cre-|a- ted; ad-|mire, a- dore, ad-|
 G2 G2 A4 |[M:2/4] z4 | z4 | z4 | z4 | z4 |[M:2/2] A4 A2 G2 | G2 G6 | F2 G2 F2 G2 | A6 (AG) | %47
w: mire, a- dore.-||||||Change your dire|Hiss- ings|in- to heav'n- ly|Songs,- And *|
 (F3 G A3 G | F2 G4 A2 | A6) G2 | A2 G2 G2 F2 |[M:2/4] (GG A)G | (FF F)F | (FF F)G | (AA A)G | %55
w: praise * * *||* your|Mak- er with your-|fork- * * ed,|fork- * * ed,|fork- * * ed,|fork- * * ed|
 A2 AG | (FG A)A | (FG G)E | F3 G | (AG F)F | F2 A2 | AG F/E/F/G/ | F E2 E |[M:3/4] F4 F2 | %64
w: Tongues, with your|fork- * * ed,|fork- * * ed|Tongues, and|praise * * your|Mak- er|with your fork- * * *|* * ed|Tongues. O|
 (A2 G2) F2 | (G2 A2) G2 | A2 A2 z2 |[M:2/2] z8 | z8 | z8 | z8 | F2 E2 D2 C2 | (DC) (DE) F4 | %73
w: praise * the|Lord * of|Heav- en;|||||creep- ing In- sects,|fly- * ing * Fowl,|
 F2 F2 F2 F2 | F2 A2 F2 G2 | (FE/F/) G2 A4 | F2 F2 E2 E2 | z8 | G2 G2 A4 | F2 F2 E2 E2 | z8 | %81
w: Kings and Princ- es,|Men and An- gels,|praise * * the Lord,|Jew and Gen- tile,||Bond and Free,|Earth and Heav- en,||
 G2 G2 A4 | F2 FF (E>D C2) | z8 | G2 G2 A4 | z2 FF FFFF | GGAA GGFG | A2 AA FAGG | AFFF GAGF | %89
w: praise the Lord;|young Men and Maids * *||praise the Lord.|Join Cre- a- tion, Pres- er-|va- tion, and Re- demp- tion join in|one; no Ex- emp- tion, nor Dis-|sen- tion, one In- ven- tion, and In-|
 FA (BG) (AF) E2 | F3 F A2 G2 | A4 AGFE | FGAF G4 | A6 z2 |: (F>GF)E (D/C/D/E/) F2 | %95
w: ten- tion reigns * through * the|Whole, to praise the|Lord, praise _ _ _|_ _ _ _ the|Lord.|Hal- * * le- lu- * * * jah,|
 (A>BA)G (F/E/F/G/) A2 | (G>FE)F G2 G2 | (G>AG)F (E/D/E/F/) G2 | (F>GA)A G2 G2 | FFAG FFGG | %100
w: Hal- * * le- lu- * * * jah,|Hal- * * le- lu- jah,|Hal- * * le- lu- * * * jah,|Hal- * * le- lu- jah,|hal- le- lu- jah, Hal- le- lu- jah,|
 AAGG A2 G2 | A4 F2 A2 | F2 A2 BGAF | BGAF GE F2 | F2 A2 G4 | A6 z2 |] %106
w: Hal le- lu- jah, praise _|_ _ _|||* * the|Lord.|
V:3
 c2 | (c2 d2) e2 | (f>e d2) e2 | f2 f2 z2 | z6 | z6 | z4 c2 | (f>e d2) c2 | d4 e2 | f2 f2 z2 | z6 | %11
w: O-|praise _ the|Lord _ _ of|Heav- en;|||O|praise _ _ the|Lord of|Heav- en,||
 f3 e de | f2 f2 z2 | f2 f2 z2 | c2 c2 z2 | c6 | f4 e2 | f2 f2 z2 | f4 e2 | f2 f2 :|[M:2/2] z8 | %21
w: praise him all ye|An- gels,|praise him,|praise him,|praise,|praise Je-|ho- vah,|praise Je-|ho- vah.||
 z8 | z4 c2 A2 |[M:3/4] B4 z2 | c4 =B2 | c4 z2 | (c2 d2) e2 | f6 |[M:2/2] z8 | z8 | %30
w: |Praise the|Lord,|praise the|Lord,|praise * the|Lord.|||
 c3 (d/e/) f3 e | (dcB)A (GF) (GA) | B4 c2 (de) | (fd)cB A2 B (A/G/) | (FA)cc f2 fe | f2 f2 z2 f2 | %36
w: For he * spake the|Word * * and all * were *|made; he com- *|mand- * ed and they were cre- *|a- * ted, and they were cre-|a- ted; ad-|
 e2 d2 c2 f2 | d2 e2 f4 |[M:2/4] z2 A2 | cc cc | (d/c/) (B/A/) B2 | z4 | z4 |[M:2/2] f4 e2 d2 | %44
w: mire, a- dore, ad-|mire, a- dore.|Ye-|Dra- gons whose con-|ta- * geous * Breath-|||Change your dire|
 e2 c6 | d2 c2 d2 e2 | f6 c2 | (d4 c4 | d4 e4 | f6) e2 | f2 e2 d2 c2 |[M:2/4] d/e/d/e/ fe/d/ | %52
w: Hiss- ings|in- to heav'n- ly|Songs, And|praise *||* your|Mak- er with your-|fork- * * * * * *|
 c/d/c/B/ A/B/A/G/ | F/G/A/B/ cd/e/ | ff fe | f2 fe | d/e/d/e/ f/g/f/e/ | dd d^c | d3 e | (fe d)c | %60
w: ||* * * ed|Tongues, with your|fork- * * * * * * *|* * * ed|Tongues, and|praise * * your|
 d2 c2 | fc dc/B/ | A2 G2 |[M:3/4] F4 c2 | (f>e d2) c2 | (d>e f2) e2 | f2 f2 z2 |[M:2/2] ccdd c4 | %68
w: Mak- er|with your fork- * *|* ed|Tongues. O|praise * * the|Lord * * of|Heav- en;|Fire, _ Hail and Snow,|
 z8 | z8 | (dcB)A B2 A2 | z8 | z8 | c2 d2 c2 c2 | c2 f2 d2 d2 | c2 (de) f4 | d2 d2 c2 c2 | z8 | %78
w: ||Beast * * and Cat- tle,|||Kings and Princ- es,|Men and An- gels,|praise the * Lord,|Jew and Gen- tile,||
 d2 e2 f4 | d2 d2 c2 c2 | z8 | d2 e2 f4 | d2 dd (c>B A2) | z8 | d2 e2 f4 | z2 Ac ccdd | ddff ecfe | %87
w: Bond and Free,|Earth and Heav- en,||praise the Lord;|young Men and Maids * *||praise the Lord.|Join Cre- a- tion, Pres- er-|va- tion, and Re- demp- tion join in|
 f2 fe dcde | fcdc BABc | dc B2 A2 G2 | F3 c f2 e2 | f4 fedc | defc d2 e2 | f6 z2 |: %94
w: one; no Ex- emp- tion, nor Dis-|sen- tion, one In- ven- tion, and In-|ten- tion reigns through the|Whole, to praise the|Lord, praise _ _ _|_ _ _ _ _ the|Lord.|
 (c>dc)B (A/G/A/B/) c2 | (f>gf)e (d/c/d/e/) f2 | (e>fg)f (ed/e/) c2 | (d>ed)c (B/A/B/c/) d2 | %98
w: Hal- * * le- lu- * * * jah,|Hal- * * le- lu- * * * jah,|Hal- * * le- lu- * * jah,|Hal- * * le- lu- * * * jah,|
 (cd/e/f)e d2 c2 | cccc dddd | ffec f2 e2 | f2 e2 d2 c2 | d2 c2 B2 A2 | B2 A2 G2 AF | Acf>e d2 e2 | %105
w: Hal- * * * le- lu- jah,|hal- le- lu- jah, Hal- le- lu- jah,|Hal- le- lu- jah, praise _|_ _ _ _|||* * * * * the|
 f6 z2 |] %106
w: Lord.|
V:4
 F,2 | (F,>E, D,2) C,2 | (F,2 G,2) C,2 | F,2 F,2 z2 | z6 | F,3 E, D,E, | F,4 F,2 | (F,2 G,2) A,2 | %8
w: O-|praise _ _ the|Lord _ of|Heav- en;||praise him in the|Depth; O|praise _ the|
 (B,>A, G,2) C,2 | F,2 F,2 z2 | F,3 E, D,E, | F,2 F,2 z2 | F,4 F,2 | F,3 E, D,E, | F,2 F,2 z2 | %15
w: Lord _ _ of|Heav- en,|praise him all ye|An- gels,|praise him,|praise him all ye|An- gels,|
 F,6 | F,4 C,2 | F,2 F,2 z2 | (F,2 B,2) C2 | F,2 F,2 :|[M:2/2] F,3 E, (F,>G,) A,2 | %21
w: praise,|praise Je-|ho- vah,|praise _ Je-|ho- vah.|Praise- him Sun * and|
 D,3 F, (B,A,/>B,/G,)F, | G,2 C,2 F,2 F,2 |[M:3/4] B,,4 z2 | F,4 G,2 | C,4 z2 | (F,>E, D,2) C,2 | %27
w: Moon and blaz- * * * ing|Com- ets, praise the|Lord,|praise the|Lord,|praise * * the|
 F,6 |[M:2/2] z8 | z8 | z8 | z8 | z8 | z8 | z2 F,2 F,2 F,C, | F,2 F,2 z2 F,2 | A,2 B,2 A,2 F,2 | %37
w: Lord.|||||||and- they were cre-|a- ted; ad-|mire, a- dore, ad-|
 G,2 C,2 F,4 |[M:2/4] z2 F,2 | A,A, A,A, | (B,/A,/) (G,/F,/) G,2 | F,G,/A,/ B, (A,/G,/) | %42
w: mire, a- dore.|Ye-|Dra- gons whose con-|ta- * geous * Breath|Peo- ple the dark A- *|
 A,D, D,2 |[M:2/2] F,4 A,2 B,2 | C2 C,6 | F,2 E,2 D,2 C,2 | F,6 F,2 | (B,4 A,4 | B,2 G,2 C2 A,2 | %49
w: bodes of Death,|Change- your dire|Hiss- ings|in- to heav'n- ly|Songs, And|praise *||
 F,6) C,2 | F,2 C2 B,2 A,2 |[M:2/4] (G,G, F,)C, | (F,F, F,) (F,/G,/) | (A,/B,/A,/G,/ A,)G, | %54
w: * your|Mak- er with _|fork- * * ed,|fork- * * ed, *|fork- * * * * ed,|
 (F,F, F,)C, | F,2 F, (G,/A,/) | (B,G, F,)F, | (B,G, G,)A, | D,3 C, | (D,E, F,)F, | B,2 A,2 | %61
w: fork- * * ed|Tongues, with your *|fork- * * ed,|fork- * * ed|Tongues, and|praise * * your|Mak- er|
 F,E, F,/G,/A,/B,/ | C C,2 C, |[M:3/4] F,4 F,2 | (F,2 G,2) A,2 | (G,2 F,2) C,2 | F,2 F,2 z2 | %67
w: with your fork- * * *|* * ed|Tongues. O|praise * the|Lord * of|Heav- en;|
[M:2/2] F,F,B,B, A,4 | (F,G,/A,/B,)A, (B,2 A,2 | B,G,E,C, F,2) z2 | z8 | F,2 C,2 D,2 F,2 | %72
w: Fire, _ Hail and Snow,|Wind * * * and Storms, *|||creep- ing In- sects,|
 (B,A,) G,2 F,4 | F,2 D,2 F,2 F,2 | F,2 F,2 B,2 G,2 | A,2 G,2 F,4 | z8 | B,2 B,2 A,2 A,2 | %78
w: fly- * ing Fowl,|Kings and Princ- es,|Men and An- gels,|praise the Lord,||Male and Fe- male,|
 G,2 C,2 F,4 | z8 | B,2 B,2 A,2 A,2 | G,2 C,2 F,4 | z8 | B,2 B,B, (A,>G, F,2) | G,2 C,2 F,4 | %85
w: Bond and Free,||Land and Wa- ter,|praise the Lord;||old Men and Babes, * *|praise the Lord.|
 z2 F,F, F,F,B,B, | G,G,F,F, C,C,D,C, | F,2 F,F, B,A,B,C | F,F,B,A, G,F,G,A, | B,A, G,2 F,2 C,2 | %90
w: Join Cre- a- tion, Pres- er-|va- tion, and Re- demp- tion join in|one; no Ex- emp- tion, nor Dis-|sen- tion, one In- ven- tion, and In-|ten- tion reigns through the|
 F,3 F, F,2 C,2 | F,4 F,4- | F,4 B,2 C2 | F,6 z2 |: [F,,F,]8 | [F,,F,]8 | C,8 | [G,,G,]8 | %98
w: Whole, to praise the|Lord, praise|_ _ the|Lord.|Hal-|le-|lu-|jah,|
 (A,>G,F,)F, G,2 C,2 | F,F,F,E, D,D,G,G, | F,F,C,C, D,2 E,C, | F,2 A,2 B,2 A,2 | B,2 A,2 G,2 F,2 | %103
w: Hal- * * le- lu- jah,|hal- le- lu- jah, Hal- le- lu- jah,|Hal- le- lu- jah, praise _ _|_ _ _ _||
 G,2 F,2 C,2 F,A, | CA,F,G,/A,/ B,2 C2 | F,6 z2 |] %106
w: |* * * * * * the|_|

